!!!SOCIAL_FUNCTION:	initiation songs of the sixth degree
!!!PDT:	1909
!!!OTL: No_18_Third_Song.krn
!!!REG: Great_Lakes
!!!LANG: Non-Tone
!!!LING_GROUP: Algonquin
**kern	**kern
*staff2	*staff1
*clefF4	*clefF4
*k[b-]	*k[b-]
*M3/4	*M3/4
4.r	8d\L
.	8.d\
.	16d\Jk
=1	=1
8GG/L	8.d\L
8GG/J	.
.	16d\Jk
8GG/L	8.d\L
8GG/J	.
.	16d\Jk
8GG/L	8.c\L
8GG/J	.
.	16c\Jk
=2	=2
2.r	4.A\
.	8c\
.	8.c\L
.	16c\Jk
=3||	=3||
*M4/4	*M4/4
1r	4.c\
.	8c\
.	8.c\L
.	16c\K
.	8.c\
.	16c\Jk
=4||	=4||
*M3/4	*M3/4
2.r	4.A\
.	8A\
.	8.A\L
.	16A\Jk
=5	=5
2.r	2G\
.	8.F\L
.	16D\Jk
=6	=6
2.r	4.D\
.	8F\
.	4F\
=7	=7
2.r	4.G\
.	8A\
.	8.A\L
.	16A\Jk
=8	=8
2.r	2G\
.	8.F\L
.	16D\Jk
=9	=9
2.r	4.D\
.	8F\
.	4F\
=10	=10
2.r	2D\
.	8.D\L
.	16D\Jk
=11	=11
2.r	2D\
.	8.A\L
.	16A\Jk
=12	=12
2.r	8A\L
.	16A\L
.	16A\JJ
.	8.A\L
.	16A\Jk
.	4A\
=13	=13
2.r	8.A\L
.	16A\Jk
.	8.A\L
.	16B-\Jk
.	8A\L
.	16A\L
.	16A\JJ
=14	=14
2.r	2G\
.	8.F\L
.	16D\Jk
=15	=15
*M3/8	*M3/8
4.r	4.D\
==	==
*-	*-
